Numix/32x32/categories/applications-monodevelopment.svg

<?xml version="1.0" encoding="UTF-8" standalone="no"?>
<svg
   xmlns:dc="http://purl.org/dc/elements/1.1/"
   xmlns:cc="http://creativecommons.org/ns#"
   xmlns:rdf="http://www.w3.org/1999/02/22-rdf-syntax-ns#"
   xmlns:svg="http://www.w3.org/2000/svg"
   xmlns="http://www.w3.org/2000/svg"
   xmlns:sodipodi="http://sodipodi.sourceforge.net/DTD/sodipodi-0.dtd"
   xmlns:inkscape="http://www.inkscape.org/namespaces/inkscape"
   width="32"
   height="32"
   viewBox="0 0 32 32"
   id="svg2"
   version="1.1"
   inkscape:version="0.91 r"
   sodipodi:docname="applications-monodevelopment.svg">
  <metadata
     id="metadata16">
    <rdf:RDF>
      <cc:Work
         rdf:about="">
        <dc:format>image/svg+xml</dc:format>
        <dc:type
           rdf:resource="http://purl.org/dc/dcmitype/StillImage" />
      </cc:Work>
    </rdf:RDF>
  </metadata>
  <defs
     id="defs14" />
  <sodipodi:namedview
     pagecolor="#ffffff"
     bordercolor="#666666"
     borderopacity="1"
     objecttolerance="10"
     gridtolerance="10"
     guidetolerance="10"
     inkscape:pageopacity="0"
     inkscape:pageshadow="2"
     inkscape:window-width="1680"
     inkscape:window-height="1026"
     id="namedview12"
     showgrid="false"
     inkscape:zoom="7.375"
     inkscape:cx="-21.898305"
     inkscape:cy="16"
     inkscape:window-x="0"
     inkscape:window-y="24"
     inkscape:window-maximized="1"
     inkscape:current-layer="svg2" />
  <path
     style="fill:none;stroke:#6996af;stroke-width:0.9896"
     d="M 24.621646,5.8922695 C 23.066959,6.5289881 18.090396,8.6071133 17.969302,8.6578945 16.574771,7.5211757 14.766177,6.6383632 12.887271,6.5368007 8.3364897,6.2516445 4.152896,10.294613 4.1411772,14.775082 c -0.203125,4.039062 1.6406251,7.769531 3.3007813,11.339844 1.3945312,-0.582032 6.4570315,-2.691407 6.5859375,-2.750001 1.363281,1.144532 3.117188,1.988282 4.941406,2.117188 4.476563,0.378906 8.640625,-3.492188 8.867188,-7.867187 0.328125,-4.093751 -1.5625,-7.8828128 -3.148438,-11.5468754 -0.02344,-0.058594 -0.04297,-0.1171874 -0.06641,-0.1757811 z"
     id="path4"
     inkscape:connector-curvature="0" />
  <g
     style="fill:#6996af"
     id="g6"
     transform="translate(0.16461478,0.16961328)">
    <path
       d="M 8.3125,23.332031 C 7.332031,20.949219 6.027344,18.855469 6,14.972656 5.96875,10.957031 9.414062,8.359375 12.132812,8.359375 c 3.292969,0 6.195313,2.785156 6.347657,5.085937 0.136719,2.078126 -0.601563,5.101563 -4.425781,5.082032 -1.820313,-0.01172 -3.714844,-1.597656 -3.726563,-3.957032 -0.0078,-2.550781 3.179687,-2.796874 3.984375,-2.148437 0.3125,0.25 0.304688,0.753906 0.02734,0.660156 -1.71875,-0.558593 -2.78125,0.542969 -2.699219,1.640625 0.105469,1.488282 0.988281,2.375 2.570313,2.449219 2.285156,0.105469 2.925781,-2.113281 2.867187,-3.015625 -0.07422,-1.09375 -1.03125,-3.347656 -4,-3.757812 -1.40625,-0.195313 -2.566406,0.222656 -3.417969,1.046874 -0.847656,0.824219 -1.324218,1.675782 -1.394531,3.074219 -0.074219,1.445313 0.242187,2.292969 1.105469,4.1875 0.308594,0.679688 1.171875,2.046875 1.839844,3.414063 z"
       id="path8"
       inkscape:connector-curvature="0" />
    <path
       d="m 23.351562,8.359375 c 0.984376,2.378906 2.285157,4.476563 2.316407,8.359375 0.02734,4.011719 -3.414063,6.613281 -6.132813,6.613281 -3.296875,0 -6.195312,-2.78125 -6.347656,-5.085937 -0.136719,-2.082032 0.601562,-5.105469 4.421875,-5.082032 1.824219,0.01172 3.71875,1.59375 3.730469,3.957032 0.0078,2.546875 -3.183594,2.792968 -3.984375,2.148437 -0.3125,-0.253906 -0.304688,-0.75 -0.02734,-0.664062 1.71875,0.5625 2.777344,-0.542969 2.699219,-1.636719 -0.105469,-1.488281 -0.992188,-2.375 -2.574219,-2.449219 -2.28125,-0.109375 -2.921875,2.109375 -2.863281,3.011719 0.07031,1.09375 1.027344,3.351562 3.996094,3.761719 1.40625,0.195312 2.570312,-0.226563 3.417968,-1.046875 0.851563,-0.824219 1.328125,-1.679688 1.398438,-3.074219 0.07031,-1.445313 -0.246094,-2.292969 -1.109375,-4.191406 -0.308594,-0.675781 -1.171875,-2.039063 -1.835938,-3.410157 z"
       id="path10"
       inkscape:connector-curvature="0" />
  </g>
</svg>

<svg width="32" xmlns="http://www.w3.org/2000/svg" height="32" viewBox="0 0 32 32" xmlns:xlink="http://www.w3.org/1999/xlink">
<path style="fill:none;stroke:#6996af;stroke-width:8" d="M 197.71246 46.262379 C 185.14425 51.40966 144.913349 68.209378 143.934418 68.619897 C 132.660924 59.430578 118.040117 52.293856 102.850899 51.472817 C 66.062045 49.167593 32.241562 81.851253 32.146827 118.071696 C 30.504749 150.723777 45.409762 180.881164 58.830588 209.743836 C 70.104082 205.038652 111.029709 187.986308 112.071797 187.512631 C 123.092664 196.765107 137.271372 203.586045 152.018492 204.628133 C 188.207357 207.691239 221.869947 176.397029 223.701496 141.029204 C 226.354082 107.935024 211.070129 77.303961 198.249293 47.683407 C 198.059822 47.209731 197.90193 46.736055 197.71246 46.262379 Z " transform="scale(.1237)"/>
<g style="fill:#6996af">
<path d="M 8.3125 23.332031 C 7.332031 20.949219 6.027344 18.855469 6 14.972656 C 5.96875 10.957031 9.414062 8.359375 12.132812 8.359375 C 15.425781 8.359375 18.328125 11.144531 18.480469 13.445312 C 18.617188 15.523438 17.878906 18.546875 14.054688 18.527344 C 12.234375 18.515625 10.339844 16.929688 10.328125 14.570312 C 10.320312 12.019531 13.507812 11.773438 14.3125 12.421875 C 14.625 12.671875 14.617188 13.175781 14.339844 13.082031 C 12.621094 12.523438 11.558594 13.625 11.640625 14.722656 C 11.746094 16.210938 12.628906 17.097656 14.210938 17.171875 C 16.496094 17.277344 17.136719 15.058594 17.078125 14.15625 C 17.003906 13.0625 16.046875 10.808594 13.078125 10.398438 C 11.671875 10.203125 10.511719 10.621094 9.660156 11.445312 C 8.8125 12.269531 8.335938 13.121094 8.265625 14.519531 C 8.191406 15.964844 8.507812 16.8125 9.371094 18.707031 C 9.679688 19.386719 10.542969 20.753906 11.210938 22.121094 Z "/>
<path d="M 23.351562 8.359375 C 24.335938 10.738281 25.636719 12.835938 25.667969 16.71875 C 25.695312 20.730469 22.253906 23.332031 19.535156 23.332031 C 16.238281 23.332031 13.339844 20.550781 13.1875 18.246094 C 13.050781 16.164062 13.789062 13.140625 17.609375 13.164062 C 19.433594 13.175781 21.328125 14.757812 21.339844 17.121094 C 21.347656 19.667969 18.15625 19.914062 17.355469 19.269531 C 17.042969 19.015625 17.050781 18.519531 17.328125 18.605469 C 19.046875 19.167969 20.105469 18.0625 20.027344 16.96875 C 19.921875 15.480469 19.035156 14.59375 17.453125 14.519531 C 15.171875 14.410156 14.53125 16.628906 14.589844 17.53125 C 14.660156 18.625 15.617188 20.882812 18.585938 21.292969 C 19.992188 21.488281 21.15625 21.066406 22.003906 20.246094 C 22.855469 19.421875 23.332031 18.566406 23.402344 17.171875 C 23.472656 15.726562 23.15625 14.878906 22.292969 12.980469 C 21.984375 12.304688 21.121094 10.941406 20.457031 9.570312 Z "/>
</g>
</svg>
